X:1098
M:2/4
L:1/16
Q:1/4=40
K:F
f    | c2``````(c/B/A/B/) A2      z   c    |A2``(A/G/F/G/) F2 z \
f    | c2``````(c/d/c/B/) A2      z   B    |A2``(A/B/A/G/) F2 z \
z/(f/| g) z/(e/ d)  z/(e/ f) z/d/ c   z    |c2```c>c       c2 z:|
c    | c>d``````e>f       g2      z   B    |B>d (c/B/A/G/) A2 z \
d    | d>e``````f>g       a2      z   g    |f>e``d>^c      d2 z
d    |(dc)     (c/B/A/B/) A2      z   c    |BA  (c/B/A/B/) A2 z \
c    | d2``````(c/B/A/G/) F2`````TG2       |F2   z   A     G2 z
                                      B    |A2   z   c     B2 z \
d    |(c>f)    (e/d/c/B/) A2`````TG2       |F2   F>F       F3  :|

